img/neoicons/servers.svg

<svg id="Layer_1" xmlns="http://www.w3.org/2000/svg" viewBox="0 0 32 32"><style>.st0{fill-rule:evenodd;clip-rule:evenodd}</style><path class="st0" d="M26.5 17h-21C3 17 1 19 1 21.5v5C1 29 3 31 5.5 31h21c2.5 0 4.5-2 4.5-4.5v-5c0-2.5-2-4.5-4.5-4.5zm1.5 9.5c0 .8-.7 1.5-1.5 1.5h-21c-.8 0-1.5-.7-1.5-1.5v-5c0-.8.7-1.5 1.5-1.5h21c.8 0 1.5.7 1.5 1.5v5z"/><circle class="st0" cx="9" cy="24" r="2"/><circle class="st0" cx="23" cy="24" r="2"/><circle cx="16" cy="24" r="2"/><path class="st0" d="M26.5 1h-21C3 1 1 3 1 5.5v5C1 13 3 15 5.5 15h21c2.5 0 4.5-2 4.5-4.5v-5C31 3 29 1 26.5 1zm1.5 9.5c0 .8-.7 1.5-1.5 1.5h-21c-.8 0-1.5-.7-1.5-1.5v-5C4 4.7 4.7 4 5.5 4h21c.8 0 1.5.7 1.5 1.5v5z"/><circle class="st0" cx="9" cy="8" r="2"/><circle class="st0" cx="23" cy="8" r="2"/><circle cx="16" cy="8" r="2"/></svg>

<?xml version="1.0" encoding="utf-8"?>
<!-- Generator: Adobe Illustrator 21.0.0, SVG Export Plug-In . SVG Version: 6.00 Build 0)  -->
<svg version="1.1" id="Layer_1" xmlns="http://www.w3.org/2000/svg" xmlns:xlink="http://www.w3.org/1999/xlink" x="0px" y="0px"
	 viewBox="0 0 32 32" style="enable-background:new 0 0 32 32;" xml:space="preserve">
<style type="text/css">
	.st0{fill-rule:evenodd;clip-rule:evenodd;}
</style>
<g>
	<path class="st0" d="M26.5,17h-21C3,17,1,19,1,21.5v5C1,29,3,31,5.5,31h21c2.5,0,4.5-2,4.5-4.5v-5C31,19,29,17,26.5,17z M28,26.5
		c0,0.8-0.7,1.5-1.5,1.5h-21C4.7,28,4,27.3,4,26.5v-5C4,20.7,4.7,20,5.5,20h21c0.8,0,1.5,0.7,1.5,1.5V26.5z"/>
	<circle class="st0" cx="9" cy="24" r="2"/>
	<circle class="st0" cx="23" cy="24" r="2"/>
	<circle cx="16" cy="24" r="2"/>
	<g>
		<path class="st0" d="M26.5,1h-21C3,1,1,3,1,5.5v5C1,13,3,15,5.5,15h21c2.5,0,4.5-2,4.5-4.5v-5C31,3,29,1,26.5,1z M28,10.5
			c0,0.8-0.7,1.5-1.5,1.5h-21C4.7,12,4,11.3,4,10.5v-5C4,4.7,4.7,4,5.5,4h21C27.3,4,28,4.7,28,5.5V10.5z"/>
		<circle class="st0" cx="9" cy="8" r="2"/>
		<circle class="st0" cx="23" cy="8" r="2"/>
		<circle cx="16" cy="8" r="2"/>
	</g>
</g>
</svg>
